packages/ui-icons/osui-icons/raw/add.svg

<svg xmlns="http://www.w3.org/2000/svg"  viewBox="0 0 1024 1024">
  <path fill="#333" fill-rule="evenodd" d="M512,128 C535.564149,128 554.666667,147.104026 554.666667,170.660422 L554.666,469.333 L853.632,469.333333 C876.77952,469.333333 895.619827,487.900348 896,511.289768 L896,512 C896,535.31648 877.391168,554.28393 854.332107,554.660947 L853.632,554.666667 L554.666,554.666 L554.666667,853.339578 C554.666667,876.664672 535.949367,895.617559 512.705724,896 L512,896 C488.435851,896 469.333333,876.895974 469.333333,853.339578 L469.333,554.666 L170.368,554.666667 C147.22048,554.666667 128.380173,536.14147 128,512.711487 L128,512 C128,488.68352 146.608832,469.71607 169.667893,469.339053 L170.368,469.333333 L469.333,469.333 L469.333333,170.660422 C469.333333,147.335328 488.050633,128.382441 511.294276,128 L512,128 Z"/>
</svg>

<svg xmlns="http://www.w3.org/2000/svg" viewBox="0 0 1024 1024"><path d="M512 127.99c23.564 0 42.667 19.104 42.667 42.658l-.001 298.652h298.966c23.148 0 41.988 18.566 42.362 41.953l.006.71c0 23.55-18.987 42.664-42.368 42.664H554.666v298.652c0 23.323-18.717 42.275-41.96 42.652l-.706.005c-23.564 0-42.667-19.102-42.667-42.657V554.627H170.368c-23.148 0-41.988-18.524-42.362-41.952l-.006-.711c0-23.55 18.987-42.664 42.368-42.664h298.965V170.648c0-23.323 18.718-42.275 41.961-42.651l.706-.006z" fill="currentColor" fill-rule="evenodd"/></svg>
